svgs/sharp-light/file-binary.svg

<svg xmlns="http://www.w3.org/2000/svg" viewBox="0 0 384 512"><!--! Font Awesome Pro 6.6.0 by @fontawesome - https://fontawesome.com License - https://fontawesome.com/license (Commercial License) Copyright 2024 Fonticons, Inc. --><path d="M352 480L32 480 32 32l160 0 0 144 0 16 16 0 144 0 0 288zM224 37.3L346.7 160 224 160l0-122.7zM232 0L32 0 0 0 0 32 0 480l0 32 32 0 320 0 32 0 0-32 0-328L232 0zM80 256l-16 0 0 16 0 128 0 16 16 0 96 0 16 0 0-16 0-128 0-16-16 0-96 0zM96 384l0-96 64 0 0 96-64 0zM240 256l-16 0 0 32 16 0 16 0 0 96-16 0-16 0 0 32 16 0 32 0 32 0 16 0 0-32-16 0-16 0 0-112 0-16-16 0-32 0z"/></svg>

<svg xmlns="http://www.w3.org/2000/svg" viewBox="0 0 384 512"><!--! Font Awesome Pro 6.4.2 by @fontawesome - https://fontawesome.com License - https://fontawesome.com/license (Commercial License) Copyright 2023 Fonticons, Inc. --><path d="M352 480H32V32H192V176v16h16H352V480zM224 37.3L346.7 160H224V37.3zM232 0H32 0V32 480v32H32 352h32V480 152L232 0zM80 256H64v16V400v16H80h96 16V400 272 256H176 80zM96 384V288h64v96H96zM240 256H224v32h16 16v96H240 224v32h16 32 32 16V384H304 288V272 256H272 240z"/></svg>
